X:4
T:Scots wha hae wi Wallace Bled. JGi.004
S:Joshua Gibbons MS,1823,Tealby,Lincs.
M:C|
L:1/8
R:Air
O:Tealby,Lincolnshire
Z:VMP/R.Greig, 2009
K:F
“Key C in MS”
c>cc>A|c>d f2|d>dd>c|d>ef>g|a>bg>a|f>ga>g|f>dd>c|c4:|
|:a>aa>g|a>b c’2|g>gg>f|g>a b2|c'<ag<a|f<ga<g|f>dd>c|c4:|

